!!!COM:	la Rue, Pierre de
!!!CDT:	~1452///-1518/11/20
!!!OPR:	Missa Incessament
!!!ONM:	1
!!!OTL:	Kyrie
!!!AGN:	Mass; Kyrie
!!!SCT:	Rue1016a
!!!SCA:	Rue1016a
!!!voices:	5
!!!voices-OPR:	5
**kern	**kern	**kern	**kern	**kern
*staff5	*staff4	*staff3	*staff2	*staff1
*Ivox	*Ivox	*Ivox	*Ivox	*Ivox
*I"Bassus 2	*I"Bassus 1	*I"Tenor	*I"Altus	*I"Discantus
*I'B2	*I'B1	*I'T	*I'A	*I'D
*>[A,B,C]	*>[A,B,C]	*>[A,B,C]	*>[A,B,C]	*>[A,B,C]
*>A	*>A	*>A	*>A	*>A
*clefF4	*clefGv2	*clefGv2	*clefGv2	*clefG2
*k[]	*k[]	*k[]	*k[]	*k[]
*M2/1	*M2/1	*M2/1	*M2/1	*M2/1
*met(C)	*met(C)	*met(C)	*met(C)	*met(C)
=1-	=1-	=1-	=1-	=1-
!LO:TX:X=-40:Z=8:t=[Canon at the upper fourth (B2-->B1)]	!	!	!	!
!!section: Kyrie I
!!!OMD: Kyrie I
0r	0r	2.G/	0r	0g
.	.	4A/	.	.
.	.	2B\	.	.
.	.	2c\	.	.
=2	=2	=2	=2	=2
0r	0r	2G/	0r	2.e/
.	.	1c	.	.
.	.	.	.	4f/
.	.	.	.	1d
.	.	2B\	.	.
=3	=3	=3	=3	=3
0r	0r	0c	0g	2c/
.	.	.	.	2.e/
.	.	.	.	4f/
.	.	.	.	4g/
.	.	.	.	4a/
=4	=4	=4	=4	=4
0r	0r	0r	2.e\	2b\
.	.	.	.	1cc
.	.	.	4f\	.
.	.	.	1d	.
.	.	.	.	2b\
=5	=5	=5	=5	=5
0r	0r	0A	2.c\	1cc
.	.	.	4d\	.
.	.	.	2e\	2cc\
.	.	.	[2f\	[2a/
=6	=6	=6	=6	=6
0r	0r	2.F/	4f\]	2a/]
.	.	.	4e\	.
.	.	.	1d	4g/
.	.	4G/	.	4f/
.	.	1E	.	1g
.	.	.	2c#i\	.
=7	=7	=7	=7	=7
0D	0r	2.D/	0d	2f/
.	.	.	.	2a/
.	.	4E/	.	.
.	.	4F/	.	2b\
.	.	4G/	.	.
.	.	[2A/	.	[2dd\
=8	=8	=8	=8	=8
2.BB/	0r	4A/]	0r	2dd\]
.	.	4G/	.	.
.	.	1G	.	4cc\
4C/	.	.	.	4b\
1AA	.	.	.	1cc
.	.	2F#i/	.	.
=9	=9	=9	=9	=9
1GG	0G	1G	1d	0b
2r	.	1r	4B\	.
.	.	.	4c\	.
2GG/	.	.	4d\	.
.	.	.	4B\	.
=10	=10	=10	=10	=10
2AA/	2.E/	2r	2c\	0r
2C/	.	2A/	1A	.
.	4F/	.	.	.
1BB	1D	4B\	.	.
.	.	4c\	.	.
.	.	4d\	2G#i/	.
.	.	4B\	.	.
=11	=11	=11	=11	=11
0AA	1C	2.c\	2.A/	0r
.	.	4B\	4B\	.
.	2r	2A/	4c\	.
.	.	.	4d\	.
.	2C/	2G/	[2e\	.
=12	=12	=12	=12	=12
0r	2D/	2F/	2e\]	0r
.	2F/	2D/	1d	.
.	1E	4E/	.	.
.	.	4F/	.	.
.	.	4G/	2c#i\	.
.	.	4E/	.	.
=13	=13	=13	=13	=13
1r	0D	1F	1d	1r
2r	.	2F/	4B\	1dd
.	.	.	4c\	.
2GG/	.	[2G/	4d\	.
.	.	.	4B\	.
=14	=14	=14	=14	=14
2AA/	0r	4G/]	2.c\	2cc\
.	.	4F/	.	.
2C/	.	1E	.	2a/
.	.	.	4B\	.
1BB	.	.	4G/	4b\
.	.	.	4A/	4cc\
.	.	2D/	4B\	4dd\
.	.	.	4G/	4b\
=15	=15	=15	=15	=15
2.AA/	1r	0E	0A	2.cc\
4BB/	.	.	.	4b\
4C/	2r	.	.	2a/
4D\	.	.	.	.
[2E\	2C/	.	.	2g/
=16	=16	=16	=16	=16
4E\]	2D/	0r	0r	2f/
4D\	.	.	.	.
1D	2F/	.	.	2d/
.	1E	.	.	4e/
.	.	.	.	4f/
2C#i/	.	.	.	4g/
.	.	.	.	4e/
=17	=17	=17	=17	=17
0D	2.D/	1r	[0d	2f/
.	.	.	.	1a
.	4E/	.	.	.
.	4F/	2r	.	.
.	4G/	.	.	.
.	[2A/	2F/	.	[2dd\
=18	=18	=18	=18	=18
0r	4A/]	2G/	0d]	2dd\]
.	4G/	.	.	.
.	1G	2B-i\	.	2.dd\
.	.	1A	.	.
.	.	.	.	4cc\
.	2F#i/	.	.	2a/
=19	=19	=19	=19	=19
1r	0G	0G	1d	2b\
.	.	.	.	2g/
2r	.	.	4B\	1dd
.	.	.	4c\	.
2GG/	.	.	4d\	.
.	.	.	4B\	.
=20	=20	=20	=20	=20
2AA/	0r	2.E/	2.c\	2cc\
2C/	.	.	.	2a/
.	.	4F/	4B\	.
1BB	.	1D	4G/	4b\
.	.	.	4A/	4cc\
.	.	.	4B\	4dd\
.	.	.	4G/	4b\
=21	=21	=21	=21	=21
2.AA/	1r	0E	2A/	2.cc\
.	.	.	2c\	.
4BB/	.	.	.	4b\
4C/	2r	.	2.c\	2a/
4D\	.	.	.	.
[2E\	2C/	.	.	2g/
.	.	.	4B\	.
=22	=22	=22	=22	=22
4E\]	2D/	0r	2A/	2f/
4D\	.	.	.	.
1D	2F/	.	2F/	2d/
.	1E	.	2G/	4e/
.	.	.	.	4f/
2C#i/	.	.	2E/	4g/
.	.	.	.	4e/
=23	=23	=23	=23	=23
0D	2.D/	1r	1A	4f/
.	.	.	.	4e/
.	.	.	.	1a
.	4E/	.	.	.
.	4F/	2r	[1d	.
.	4G/	.	.	.
.	[2A/	2F/	.	[2dd\
=24	=24	=24	=24	=24
2BB/	4A/]	2G/	1d]	2dd\]
.	4G/	.	.	.
2GG/	1G	2B-i\	.	4cc\
.	.	.	.	4b\
1AA	.	1A	2r	1cc
.	2F#i/	.	2A/	.
=25	=25	=25	=25	=25
[0GGl	[0Gl	[0Dl	4B\	[0bl
.	.	.	4G/	.
.	.	.	4B\	.
.	.	.	4c\	.
.	.	.	2d\	.
.	.	.	2G/	.
=26	=26	=26	=26	=26
0GG_	0G_	0D_	0d	0b_
=27	=27	=27	=27	=27
0GG]	0G]	0D]	0dl	0b]
!!LO:LB:i:g=z
=28||	=28||	=28||	=28||	=28||
*>B	*>B	*>B	*>B	*>B
*clefF4	*clefGv2	*clefGv2	*clefGv2	*clefG2
*k[]	*k[]	*k[]	*k[]	*k[]
*M2/1	*M2/1	*M2/1	*M2/1	*M2/1
*met(C2)	*met(C2)	*met(C2)	*met(C2)	*met(C2)
!!section: Christe
!!!OMD: Christe
0r	0r	0r	0d	0r
=29.	=29.	=29.	=29.	=29.
0r	0r	0G	1B	0r
.	.	.	1G	.
=30	=30	=30	=30	=30
0r	0r	1E	0g	0r
.	.	1C	.	.
=31.	=31.	=31.	=31.	=31.
0r	0r	0c	1e	0a
.	.	.	1c	.
=32	=32	=32	=32	=32
0D	0r	1A	1f	1f
.	.	1F	2f\	[1d
.	.	.	[2d\	.
=33.	=33.	=33.	=33.	=33.
1BB	0r	0D	2d\]	1d]
.	.	.	1B	.
[1GG	.	.	.	[1dd
.	.	.	2G/	.
=34	=34	=34	=34	=34
1GG]	0G	0r	0G	1dd]
[1G	.	.	.	1b
=35.	=35.	=35.	=35.	=35.
1G]	1E	0G	1r	0g
1E	[1C	.	2r	.
.	.	.	[2g\	.
=36	=36	=36	=36	=36
1C	1C]	1E	2g\]	0cc
.	.	.	1e	.
1AA	[1c	1C	.	.
.	.	.	[2c\	.
=37.	=37.	=37.	=37.	=37.
0r	1c]	0c	2c\]	1a
.	.	.	1A	.
.	1A	.	.	1f
.	.	.	[2f\	.
=38	=38	=38	=38	=38
0A	1F	1A	4f\]	2.d/
.	.	.	4e\	.
.	.	.	4d\	.
.	.	.	4c\	4e/
.	1D	1F	2d\	4f/
.	.	.	.	4g/
.	.	.	[2f\	[2a/
=39.	=39.	=39.	=39.	=39.
2.F\	0r	2D/	4f\]	2a/]
.	.	.	4e\	.
.	.	1A	1d	4g/
4G\	.	.	.	4f/
1E	.	.	.	1g
.	.	2G/	2c#i\	.
=40	=40	=40	=40	=40
1D	0d	1A	[0d	2f/
.	.	.	.	2a/
2G\	.	1r	.	2b-i\
2F\	.	.	.	[2a/
=41.	=41.	=41.	=41.	=41.
1G	2.B\	1r	0d]	4a/]
.	.	.	.	4g/
.	.	.	.	1g
.	4c\	.	.	.
1D	1A	2r	.	.
.	.	2A/	.	2f#i/
=42	=42	=42	=42	=42
1GG	1G	2B\	0r	2g/
.	.	2G/	.	2b\
1r	2c\	2A/	.	2cc\
.	2B\	2G/	.	[2dd\
=43.	=43.	=43.	=43.	=43.
0r	1c	2c\	1r	2dd\]
.	.	2e\	.	1cc
.	1G	1d	2r	.
.	.	.	2d\	2b\
=44	=44	=44	=44	=44
0r	1C	0c	1e	0cc
.	1r	.	2c\	.
.	.	.	2e\	.
=45.	=45.	=45.	=45.	=45.
0r	0r	2r	2.f\	0r
.	.	2A/	.	.
.	.	.	4e\	.
.	.	1B	2d\	.
.	.	.	[2g\	.
=46	=46	=46	=46	=46
1r	0r	2G/	2g\]	0r
.	.	1c	4f\	.
.	.	.	4e\	.
2r	.	.	1d	.
2G\	.	2B\	.	.
=47.	=47.	=47.	=47.	=47.
2.A\	0r	2.c\	[0c	0r
4G\	.	4B\	.	.
2F\	.	2A/	.	.
2E\	.	2G/	.	.
=48	=48	=48	=48	=48
2F\	1r	2A/	0c]	0r
2D\	.	2F/	.	.
1E	2r	1G	.	.
.	2c\	.	.	.
=49.	=49.	=49.	=49.	=49.
2D\	2.d\	1A	0r	0r
2F\	.	.	.	.
.	4c\	.	.	.
2G\	2B\	1r	.	.
[2A\	2A/	.	.	.
=50	=50	=50	=50	=50
4A\]	2B\	0r	0r	0r
4G\	.	.	.	.
1G	2G/	.	.	.
.	1A	.	.	.
2F#i\	.	.	.	.
=51.	=51.	=51.	=51.	=51.
[0G	2G/	0r	2.g\	0g
.	2B\	.	.	.
.	.	.	4f\	.
.	2c\	.	2e\	.
.	[2d\	.	2d\	.
=52	=52	=52	=52	=52
0G]	4d\]	1r	2e\	0g
.	4c\	.	.	.
.	1c	.	2c\	.
.	.	1G	1d	.
.	2B\	.	.	.
=53.	=53.	=53.	=53.	=53.
0r	[0c	1C	2c\	1g
.	.	.	2e\	.
.	.	2F/	2f\	2a/
.	.	2E/	[2g\	[2cc\
=54	=54	=54	=54	=54
0r	0c]	1F	4g\]	4cc\]
.	.	.	4f\	4b\
.	.	.	1f	2a/
.	.	1C	.	2g/
.	.	.	2e\	4a/
.	.	.	.	4g/
=55.	=55.	=55.	=55.	=55.
0r	0r	2.F/	2f\	0a
.	.	.	2c\	.
.	.	4E/	.	.
.	.	2D/	2d\	.
.	.	2C/	[2e\	.
=56	=56	=56	=56	=56
0r	0r	1D	4e\]	2.f/
.	.	.	4d\	.
.	.	.	1d	.
.	.	.	.	4g/
.	.	1A	.	1e
.	.	.	2c#i\	.
=57.	=57.	=57.	=57.	=57.
0A	0r	2D/	1d	2d/
.	.	2.F/	.	4A/
.	.	.	.	4B/
.	.	.	1r	4c/
.	.	4E/	.	4d/
.	.	2C/	.	[2e/
=58	=58	=58	=58	=58
2.F\	0r	1D	0r	2e/]
.	.	.	.	1d
4G\	.	.	.	.
1E	.	1AA	.	.
.	.	.	.	2c#i/
=59.	=59.	=59.	=59.	=59.
[0D	0d	2D/	1r	[0d
.	.	2F/	.	.
.	.	2G/	2r	.
.	.	[2A/	2D/	.
=60	=60	=60	=60	=60
0D]	2.B\	4A/]	2F/	0d]
.	.	4G/	.	.
.	.	1G	2G/	.
.	4c\	.	.	.
.	1A	.	1A	.
.	.	2F#i/	.	.
=61.	=61.	=61.	=61.	=61.
[0GGl	[0Gl	0G	[0Bl	[0dl
=62	=62	=62	=62	=62
0GG]	0G]	0Dl	0B]	0d]
!!LO:LB:i:g=z
=63||	=63||	=63||	=63||	=63||
*>C	*>C	*>C	*>C	*>C
*clefF4	*clefGv2	*clefGv2	*clefGv2	*clefG2
*k[]	*k[]	*k[]	*k[]	*k[]
*M2/1	*M2/1	*M2/1	*M2/1	*M2/1
*met(C)	*met(C)	*met(C)	*met(C)	*met(C)
!!section: Kyrie II
!!!OMD: Kyrie II
0r	0r	0G	0r	0r
=64	=64	=64	=64	=64
0r	0r	2A/	2r	0r
.	.	2B\	2d\	.
.	.	2c\	2e\	.
.	.	4B\	2f\	.
.	.	4A/	.	.
=65	=65	=65	=65	=65
0r	0r	2G/	2.g\	1r
.	.	2C/	.	.
.	.	.	4f\	.
.	.	2E/	2e\	2r
.	.	2F/	[2d\	2a/
=66	=66	=66	=66	=66
0r	0r	2G/	4d\]	2b\
.	.	.	4c\	.
.	.	2.A/	4B\	2cc\
.	.	.	4A/	.
.	.	.	1B	1dd
.	.	4G/	.	.
.	.	2G/	.	.
=67	=67	=67	=67	=67
0r	0r	2A/	1A	2.cc\
.	.	2F/	.	.
.	.	.	.	4b\
.	.	2A/	2r	2a/
.	.	2B\	2d\	[2g/
=68	=68	=68	=68	=68
0r	0r	2c\	2e\	4g/]
.	.	.	.	4f/
.	.	2.d\	2f\	4e/
.	.	.	.	4d/
.	.	.	1g	1e
.	.	4c#i\	.	.
.	.	2c#i\	.	.
=69	=69	=69	=69	=69
0r	0r	1d	2.f\	2.d/
.	.	.	4e\	4e/
.	.	1r	2d\	4f/
.	.	.	.	4g/
.	.	.	[2c\	4a/
.	.	.	.	4b\
=70	=70	=70	=70	=70
1r	0r	0r	4c\]	4a/
.	.	.	4B\	4g/
.	.	.	4A/	1g
.	.	.	4G/	.
2r	.	.	1A	.
2D\	.	.	.	2f#i/
=71	=71	=71	=71	=71
2E\	0r	1r	2G/	0g
2F\	.	.	1d	.
1G	.	1B-i	.	.
.	.	.	2e\	.
=72	=72	=72	=72	=72
2.F\	1r	1A	4f\	0r
.	.	.	4e\	.
.	.	.	4d\	.
4E\	.	.	4c\	.
2D\	2r	2F/	4B\	.
.	.	.	4A/	.
[2C/	2G/	4G/	4c\	.
.	.	4F/	4B\	.
=73	=73	=73	=73	=73
4C/]	2A/	4E/	4A/	0r
4BB/	.	4D/	4G/	.
4AA/	2B\	1D	1G	.
4GG/	.	.	.	.
1AA	1c	.	.	.
.	.	2C/	2F#i/	.
=74	=74	=74	=74	=74
1GG	2.B\	1D	1G	0r
.	4A/	.	.	.
1r	2G/	2G/	2r	.
.	[2F/	2A/	2c\	.
=75	=75	=75	=75	=75
0r	4F/]	2B\	2d\	0r
.	4E/	.	.	.
.	4D/	1c	2e\	.
.	4C/	.	.	.
.	1D	.	1f	.
.	.	2B\	.	.
=76	=76	=76	=76	=76
0r	1C	1c	1e	2r
.	.	.	.	2g/
.	1r	2r	2d\	2a/
.	.	2G/	[2g\	2b\
=77	=77	=77	=77	=77
0r	0r	1A	2g\]	1cc
.	.	.	2f#i\	.
.	.	[1G	2.g\	2.b\
.	.	.	4fni\	4cc\
=78	=78	=78	=78	=78
0r	0r	0G_	2d\	2dd\
.	.	.	1e	1g
.	.	.	4d\	4f/
.	.	.	4c\	4e/
=79	=79	=79	=79	=79
0r	0r	1G]	1B	1d
.	.	1A	2r	2r
.	.	.	2f\	2a/
=80	=80	=80	=80	=80
0r	0r	[0G	2.g\	2.b\
.	.	.	4f\	4cc\
.	.	.	2d\	2dd\
.	.	.	[2e\	[2g/
=81	=81	=81	=81	=81
0r	0r	0G]	2e\]	2g/]
.	.	.	4d\	4f/
.	.	.	4c\	4e/
.	.	.	2B\	2d/
.	.	.	[2e\	[2g/
=82	=82	=82	=82	=82
2r	0r	1C	4e\]	2g/]
.	.	.	4d\	.
1G	.	.	2.c\	4f/
.	.	.	.	4e/
.	.	1D	.	1f
.	.	.	4B\	.
2F\	.	.	2B\	.
=83	=83	=83	=83	=83
2.G\	0r	1C	1c	2e/
.	.	.	.	2g/
4E\	.	.	.	.
2F\	.	1r	1r	2a/
2G\	.	.	.	[2g/
=84	=84	=84	=84	=84
2E\	2r	0r	0r	2g/]
1A	1c	.	.	4f/
.	.	.	.	4e/
.	.	.	.	1d
2G\	2B\	.	.	.
=85	=85	=85	=85	=85
1A	2.c\	0r	0r	1c
.	4A/	.	.	.
2G\	2B\	.	.	1r
[2A\	2c\	.	.	.
=86	=86	=86	=86	=86
4A\]	2A/	1r	0r	1r
4G\	.	.	.	.
2F\	1d	.	.	.
1E	.	1G	.	2r
.	2c#i\	.	.	2g/
=87	=87	=87	=87	=87
1D	1d	1A	0r	2f/
.	.	.	.	2.a/
1r	2c\	1F	.	.
.	.	.	.	4g/
.	[2d\	.	.	4f/
.	.	.	.	4e/
=88	=88	=88	=88	=88
0r	4d\]	1G	[0d	2d/
.	4c\	.	.	.
.	2B\	.	.	1g
.	1A	1D	.	.
.	.	.	.	2f#i/
=89	=89	=89	=89	=89
2r	1G	1G	0d]	2.g/
1G	.	.	.	.
.	.	.	.	4a/
.	1r	1D	.	4b\
.	.	.	.	4cc\
2F\	.	.	.	2dd\
=90	=90	=90	=90	=90
2.G\	0r	0r	1e	2g/
.	.	.	.	1cc
4E\	.	.	.	.
2F\	.	.	1d	.
2G\	.	.	.	2b\
=91	=91	=91	=91	=91
2E\	2r	0r	2.c\	1cc
1A	1c	.	.	.
.	.	.	4d\	.
.	.	.	4e\	1r
.	.	.	4f\	.
2G\	2B\	.	[2g\	.
=92	=92	=92	=92	=92
1A	2.c\	0r	2g\]	2r
.	.	.	2f\	2cc\
.	4A/	.	.	.
2E\	2B\	.	2g\	2b\
[2A\	2c\	.	2f\	2a/
=93	=93	=93	=93	=93
4A\]	2A/	1r	2e\	2cc\
4G\	.	.	.	.
2F\	1d	.	2d\	4b\
.	.	.	.	4a/
1E	.	1G	1e	1g
.	2c#i\	.	.	.
=94	=94	=94	=94	=94
2D\	1d	2A/	1r	2f/
2G\	.	2G/	.	4d/
.	.	.	.	4e/
2F\	2A/	2A/	2r	4f/
.	.	.	.	4g/
2D\	[2d\	2F/	[2f\	2a/
=95	=95	=95	=95	=95
2r	4d\]	1G	4f\]	2d/
.	4c\	.	4e\	.
2G\	2B\	.	4d\	1g
.	.	.	4c\	.
2F\	1A	1D	1d	.
2D\	.	.	.	2f#i/
=96	=96	=96	=96	=96
1E	2G/	2r	2B\	1g
.	2c\	1G	2e\	.
2r	2B\	.	2d\	2r
2G\	2G/	2G/	2B\	2b\
=97	=97	=97	=97	=97
2F\	2r	2A/	4c\	2.a/
.	.	.	4d\	.
4E\	2c\	2F/	4e\	.
4D\	.	.	4f\	4b\
1E	2B\	4G/	1e	2.g/
.	.	4A/	.	.
.	2G/	4B\	.	.
.	.	4c\	.	4e/
=98	=98	=98	=98	=98
4D\	1A	4d\	0A	4f/
4E\	.	4c\	.	4g/
4F\	.	2r	.	4a/
4G\	.	.	.	4b\
2A\	2r	2.c\	.	2cc\
2F\	2c\	.	.	[2a/
.	.	4B\	.	.
=99	=99	=99	=99	=99
1G	2B\	4G/	[0dl	4a/]
.	.	4A/	.	4g/
.	4A/	4B\	.	1g
.	4G/	4c\	.	.
1D	1A	1d	.	.
.	.	.	.	2f#i/
=100	=100	=100	=100	=100
0GGl	0Gl	0Bl	0d]	0gl
==	==	==	==	==
*-	*-	*-	*-	*-
!!!RDF**kern: l=long note in original notation
!!!RDF**kern: i=editorial accidental
!!!RDF**kern: V=start of tuplet marker
!!!RDF**kern: Z=end of tuplet marker
!!!ENC:	Opera Omnia
!!!END:	2012/11/11/
!!!EED:	Jesse Rodin
!!!EEV:	2012/04/27/
!!!ONB:	Translated from MusicXML and edited on 2012/12/15/ by Craig Sapp
!!muse2ps: T^@{OPR}^u^@{ONM}{. }@{OTL}^C^@{COM}^i2I150v95,95,95,95,130Q16c110
